svgs/sharp-regular/hand-back-fist.svg

<svg xmlns="http://www.w3.org/2000/svg" viewBox="0 0 448 512"><!--! Font Awesome Pro 6.6.0 by @fontawesome - https://fontawesome.com License - https://fontawesome.com/license (Commercial License) Copyright 2024 Fonticons, Inc. --><path d="M120 0L96 0l0 24 0 100L41.6 164.8 32 172l0 12 0 49.5c0 51.8 23 100.9 62.8 134c10.3 8.6 21.4 15.9 33.2 21.8l0 98.6 0 24 48 0 0-24 0-114.2 0-16.4-15.3-5.9c-12.7-4.9-24.6-11.9-35.2-20.7C96.7 306.7 80 271.1 80 233.5L80 196l32-24 0 36 0 16 32 0 0-16 0-60 0-12 0-8 0-16 0-64 32 0 0 8 0 24 24 0 40 0 0 8 0 24 24 0 40 0 0 8 0 24 24 0 40 0 0 120c0 .7-.1 1.4-.2 2l-.4 1.5-.2 1.5c-4.1 33-23.6 61.2-51.2 77.2L304 353l0 13.8L304 488l0 24 48 0 0-24 0-108.1c33.5-23.8 57-61 62.7-103.8c.9-3.9 1.3-8 1.3-12.1l0-144 0-24-24 0-40 0 0-8 0-24-24 0-40 0 0-8 0-24-24 0-40 0 0-8 0-24L200 0 120 0z"/></svg>

<svg xmlns="http://www.w3.org/2000/svg" viewBox="0 0 448 512"><!--! Font Awesome Pro 6.4.2 by @fontawesome - https://fontawesome.com License - https://fontawesome.com/license (Commercial License) Copyright 2023 Fonticons, Inc. --><path d="M120 0H96V24 124L41.6 164.8 32 172v12 49.5c0 51.8 23 100.9 62.8 134c10.3 8.6 21.4 15.9 33.2 21.8V488v24h48V488 373.8 357.4l-15.3-5.9c-12.7-4.9-24.6-11.9-35.2-20.7C96.7 306.7 80 271.1 80 233.5V196l32-24v36 16h32V208 148 136v-8V112 48h32v8V80h24 40v8 24h24 40v8 24h24 40V264c0 .7-.1 1.4-.2 2l-.4 1.5-.2 1.5c-4.1 33-23.6 61.2-51.2 77.2L304 353v13.8V488v24h48V488 379.9c33.5-23.8 57-61 62.7-103.8c.9-3.9 1.3-8 1.3-12.1V120 96H392 352V88 64H328 288V56 32H264 224V24 0H200 120z"/></svg>
